X: 19515
T: Jacqueline, The
R: waltz
M: 3/4
K: Gmajor
|:D2G2B2|D2G2B2|d2c2A2|F3GFE|D2F2A2|D2F2A2|d2^cded|B4BB|
D2G2B2|D2G2B2|d2c2A2|E3GFE|D2F2AB|c2B2AF|GGFGBd|1 g4EE:|2 g3 d^cd||
|:ed^cded|gdfde^c|dd^cded|F3d^cd|ed^cded|gdfde^c|d2^cded|B3d^cd|
ed^cdef|gdfde^c|dd^cded|F4EE|D2F2AB|c2B2AF|GGFGBd|1 g3 d^cd:|2 g4EE||

